assets/svg/icon-large-content-engineering-white.svg

<?xml version="1.0" encoding="UTF-8" standalone="no"?>
<svg width="68px" height="36px" viewBox="0 0 68 36" version="1.1" xmlns="http://www.w3.org/2000/svg" xmlns:xlink="http://www.w3.org/1999/xlink">
    <!-- Generator: Sketch 3.8.3 (29802) - http://www.bohemiancoding.com/sketch -->
    <title>white/icon-large-content-engineering-white</title>
    <desc>Created with Sketch.</desc>
    <defs></defs>
    <g id="white" stroke="none" stroke-width="1" fill="none" fill-rule="evenodd">
        <g id="icons,-large-detailed-white" transform="translate(-452.000000, -595.000000)" fill="#FFFFFF">
            <g id="white/icon-large-content-engineering-white" transform="translate(452.000000, 595.000000)">
                <g id="icon-content-engineering">
                    <g id="Page-1">
                        <g id="solo-icons">
                            <g id="icon-content-engineering">
                                <path d="M21.3951531,11.3425448 L3.51396486,18.9487219 L21.3951531,26.554899 L21.3951531,31.3143197 L0,21.3951531 L0,16.5467712 L21.3951531,6.62760458 L21.3951531,11.3425448 L21.3951531,11.3425448 Z M29.3571747,35.3620515 L24.9091179,35.3620515 L38.1643273,0 L42.6123841,0 L29.3571747,35.3620515 L29.3571747,35.3620515 Z M67.5659824,16.5467712 L67.5659824,21.3951531 L46.1708293,31.3143197 L46.1708293,26.554899 L64.0520175,18.9487219 L46.1708293,11.3425448 L46.1708293,6.62760458 L67.5659824,16.5467712 L67.5659824,16.5467712 Z" id="&lt;/&gt;"></path>
                            </g>
                        </g>
                    </g>
                </g>
            </g>
        </g>
    </g>
</svg>

<svg width="68" height="36" viewBox="0 0 68 36" xmlns="http://www.w3.org/2000/svg"><title>white/icon-large-content-engineering-white</title><path d="M21.395 11.343L3.514 18.949l17.881 7.606v4.76L0 21.394v-4.848l21.395-9.92v4.716zm7.962 24.02H24.91L38.164 0h4.448L29.357 35.362zm38.209-18.816v4.848l-21.395 9.92v-4.76l17.881-7.606-17.881-7.606V6.628l21.395 9.919z" fill="#FFF" fill-rule="evenodd"/></svg>
